X:4
T:Voice overlay and chords
M:C
L:1/4
K:C
[C2G]A[B3/G2]c/|cdef&ABcd|GA{[FA]}[GB][Ac]|defg&&Bcde|
GABc|efga&&FGAB&&CDEF|GA(&&Bc|de&&FG|AB)cd|
